src/images/icons/establishments.svg

<svg width="32" height="32" viewBox="0 0 32 32" fill="currentColor" xmlns="http://www.w3.org/2000/svg">
<path d="M8.20807 20.3252H6.27019C5.97899 20.3252 5.74285 20.5613 5.74285 20.8525V22.7904C5.74285 23.0816 5.97899 23.3178 6.27019 23.3178H8.20807C8.49927 23.3178 8.73542 23.0816 8.73542 22.7904V20.8525C8.73542 20.5613 8.49933 20.3252 8.20807 20.3252ZM7.68073 22.2631H6.79754V21.3799H7.68073V22.2631ZM12.5037 20.3252H10.5658C10.2746 20.3252 10.0385 20.5613 10.0385 20.8525V22.7904C10.0385 23.0816 10.2746 23.3178 10.5658 23.3178H12.5037C12.7949 23.3178 13.0311 23.0816 13.0311 22.7904V20.8525C13.0311 20.5613 12.795 20.3252 12.5037 20.3252ZM11.9764 22.2631H11.0932V21.3799H11.9764V22.2631ZM8.20807 24.3948H6.27019C5.97899 24.3948 5.74285 24.6309 5.74285 24.9221V26.86C5.74285 27.1512 5.97899 27.3873 6.27019 27.3873H8.20807C8.49927 27.3873 8.73542 27.1512 8.73542 26.86V24.9221C8.73542 24.6309 8.49933 24.3948 8.20807 24.3948ZM7.68073 26.3326H6.79754V25.4494H7.68073V26.3326ZM12.5037 24.3948H10.5658C10.2746 24.3948 10.0385 24.6309 10.0385 24.9221V26.86C10.0385 27.1512 10.2746 27.3873 10.5658 27.3873H12.5037C12.7949 27.3873 13.0311 27.1512 13.0311 26.86V24.9221C13.0311 24.6309 12.795 24.3948 12.5037 24.3948ZM11.9764 26.3326H11.0932V25.4494H11.9764V26.3326ZM10.1428 15.9736C9.86406 15.9736 9.61545 16.2239 9.61545 16.501C9.61545 16.778 9.86511 17.0283 10.1428 17.0283C10.4197 17.0283 10.6701 16.7788 10.6701 16.501C10.6701 16.2225 10.4212 15.9747 10.1428 15.9736Z"/>
<path d="M28.9727 28.4453H28.4453V15.0475C28.4453 14.7563 28.2092 14.5201 27.918 14.5201H25.3934V7.72669C25.3934 7.53152 25.2856 7.35227 25.1132 7.26083L16.2538 2.56146C15.9089 2.3785 15.4794 2.63687 15.4794 3.02731V8.40622H10.1426C9.85144 8.40622 9.61529 8.64236 9.61529 8.93356V14.4033C9.61529 14.6945 9.85144 14.9306 10.1426 14.9306C10.4338 14.9306 10.67 14.6945 10.67 14.4033V9.46091H17.8419V11.567H16.0067C15.7155 11.567 15.4794 11.8032 15.4794 12.0944C15.4794 12.3856 15.7155 12.6217 16.0067 12.6217H17.8419V14.5201H16.0067C15.7155 14.5201 15.4794 14.7563 15.4794 15.0475C15.4794 15.3387 15.7155 15.5748 16.0067 15.5748H17.8419V17.4733H16.0067C15.7155 17.4733 15.4794 17.7094 15.4794 18.0006C15.4794 18.2918 15.7155 18.528 16.0067 18.528H17.8419V20.4264H16.0067C15.7155 20.4264 15.4794 20.6625 15.4794 20.9537C15.4794 21.2449 15.7155 21.4811 16.0067 21.4811H17.8419V23.3795H16.0067C15.7155 23.3795 15.4794 23.6157 15.4794 23.9069C15.4794 24.1981 15.7155 24.4342 16.0067 24.4342H17.8419V26.3326H16.0067C15.7155 26.3326 15.4794 26.5688 15.4794 26.86C15.4794 27.1512 15.7155 27.3873 16.0067 27.3873H17.8419V28.4453H15.1562V18.7422C15.1562 18.451 14.9201 18.2148 14.6289 18.2148H4.08203C3.79083 18.2148 3.55469 18.451 3.55469 18.7422V28.4453H3.02734C2.73614 28.4453 2.5 28.6814 2.5 28.9726C2.5 29.2638 2.73614 29.5 3.02734 29.5H28.9727C29.2639 29.5 29.5 29.2638 29.5 28.9726C29.5 28.6814 29.2639 28.4453 28.9727 28.4453ZM14.1016 28.4453H4.60938V19.2695H14.1016V28.4453ZM20.6406 15.0475V28.4453H18.8965V8.93356C18.8965 8.64236 18.6604 8.40622 18.3692 8.40622H16.534V3.90397L24.3387 8.04394V14.5201H21.168C20.8768 14.5201 20.6406 14.7563 20.6406 15.0475ZM27.3906 17.4733H24.543C24.2518 17.4733 24.0156 17.7094 24.0156 18.0006C24.0156 18.2918 24.2518 18.528 24.543 18.528H27.3906V20.4264H24.543C24.2518 20.4264 24.0156 20.6625 24.0156 20.9537C24.0156 21.2449 24.2518 21.4811 24.543 21.4811H27.3906V23.3795H24.543C24.2518 23.3795 24.0156 23.6157 24.0156 23.9069C24.0156 24.1981 24.2518 24.4342 24.543 24.4342H27.3906V26.3326H25.791C25.4998 26.3326 25.2637 26.5688 25.2637 26.86C25.2637 27.1512 25.4998 27.3873 25.791 27.3873H27.3906V28.4453H21.6953V15.5748H27.3906V17.4733Z"/>
<path d="M23.4002 26.3327C23.1229 26.3327 22.8729 26.5826 22.8729 26.8601C22.8729 27.1385 23.1217 27.3865 23.4002 27.3874C23.6798 27.3874 23.9271 27.1386 23.9276 26.8601C23.9276 26.5809 23.679 26.3334 23.4002 26.3327ZM20.6406 8.45896C20.3494 8.45896 20.1133 8.69511 20.1133 8.9863V9.9707C20.1133 10.2619 20.3494 10.498 20.6406 10.498C20.9318 10.498 21.168 10.2619 21.168 9.9707V8.9863C21.168 8.69511 20.9318 8.45896 20.6406 8.45896ZM20.6406 11.567C20.3494 11.567 20.1133 11.8031 20.1133 12.0943V13.1802C20.1133 13.4715 20.3494 13.7076 20.6406 13.7076C20.9318 13.7076 21.168 13.4714 21.168 13.1802V12.0943C21.168 11.8031 20.9318 11.567 20.6406 11.567ZM22.75 8.45896C22.4588 8.45896 22.2227 8.69511 22.2227 8.9863V9.9707C22.2227 10.2619 22.4588 10.498 22.75 10.498C23.0412 10.498 23.2773 10.2619 23.2773 9.9707V8.9863C23.2773 8.69511 23.0412 8.45896 22.75 8.45896ZM22.75 11.567C22.4588 11.567 22.2227 11.8031 22.2227 12.0943V13.1802C22.2227 13.4715 22.4588 13.7076 22.75 13.7076C23.0412 13.7076 23.2773 13.4714 23.2773 13.1802V12.0943C23.2773 11.8031 23.0412 11.567 22.75 11.567Z"/>
</svg>

<svg xmlns="http://www.w3.org/2000/svg" fill="currentColor" viewBox="0 0 32 32">
  <path d="M8.208 20.325H6.27a.527.527 0 0 0-.527.528v1.937c0 .292.236.528.527.528h1.938a.527.527 0 0 0 .527-.528v-1.937a.527.527 0 0 0-.527-.528Zm-.527 1.938h-.883v-.883h.883v.883Zm4.823-1.938h-1.938a.527.527 0 0 0-.527.528v1.937c0 .292.236.528.527.528h1.938a.527.527 0 0 0 .527-.528v-1.937a.527.527 0 0 0-.527-.528Zm-.528 1.938h-.883v-.883h.883v.883Zm-3.768 2.132H6.27a.527.527 0 0 0-.527.527v1.938c0 .291.236.527.527.527h1.938a.527.527 0 0 0 .527-.527v-1.938a.527.527 0 0 0-.527-.527Zm-.527 1.938h-.883v-.883h.883v.883Zm4.823-1.938h-1.938a.527.527 0 0 0-.527.527v1.938c0 .291.236.527.527.527h1.938a.527.527 0 0 0 .527-.527v-1.938a.527.527 0 0 0-.527-.527Zm-.528 1.938h-.883v-.883h.883v.883Zm-1.46-10.205a.53.53 0 0 0-.9.373.53.53 0 0 0 .527.527.531.531 0 0 0 .373-.9Z"/>
  <path d="M28.973 28.445h-.528V15.047a.527.527 0 0 0-.527-.527h-2.525V7.727a.527.527 0 0 0-.28-.466l-8.86-4.7a.527.527 0 0 0-.774.466v5.38h-5.336a.527.527 0 0 0-.528.527v5.47a.527.527 0 0 0 1.055 0V9.46h7.172v2.106h-1.835a.527.527 0 0 0 0 1.055h1.835v1.898h-1.835a.527.527 0 0 0 0 1.055h1.835v1.898h-1.835a.527.527 0 0 0 0 1.055h1.835v1.898h-1.835a.527.527 0 0 0 0 1.055h1.835v1.898h-1.835a.527.527 0 0 0 0 1.055h1.835v1.899h-1.835a.527.527 0 0 0 0 1.054h1.835v1.058h-2.686v-9.703a.527.527 0 0 0-.527-.527H4.082a.527.527 0 0 0-.527.527v9.703h-.528a.527.527 0 0 0 0 1.055h25.946a.527.527 0 0 0 0-1.055Zm-14.871 0H4.609V19.27h9.493v9.175Zm6.539-13.398v13.398h-1.744V8.934a.527.527 0 0 0-.528-.528h-1.835V3.904l7.805 4.14v6.476h-3.171a.527.527 0 0 0-.527.527Zm6.75 2.426h-2.848a.527.527 0 0 0 0 1.055h2.848v1.898h-2.848a.527.527 0 0 0 0 1.055h2.848v1.898h-2.848a.527.527 0 0 0 0 1.055h2.848v1.899h-1.6a.527.527 0 0 0 0 1.054h1.6v1.058h-5.696v-12.87h5.696v1.898Z"/>
  <path d="M23.773 26.487a.53.53 0 0 0-.746 0 .531.531 0 0 0 0 .746.53.53 0 0 0 .9-.373.528.528 0 0 0-.154-.373ZM20.641 8.46a.527.527 0 0 0-.528.527v.985a.527.527 0 1 0 1.055 0v-.985a.527.527 0 0 0-.527-.527Zm0 3.108a.527.527 0 0 0-.528.527v1.086a.527.527 0 1 0 1.055 0v-1.086a.527.527 0 0 0-.527-.527ZM22.75 8.46a.527.527 0 0 0-.527.527v.985a.527.527 0 1 0 1.054 0v-.985a.527.527 0 0 0-.527-.527Zm0 3.108a.527.527 0 0 0-.527.527v1.086a.527.527 0 1 0 1.054 0v-1.086a.527.527 0 0 0-.527-.527Z"/>
</svg>
